symbols/web/privacy_tip/materialsymbolsrounded/privacy_tip_wght200fill1_48px.svg

<svg xmlns="http://www.w3.org/2000/svg" height="48" width="48"><path d="M24 32.4q.35 0 .55-.225.2-.225.2-.575V21.45q0-.35-.225-.55-.225-.2-.525-.2-.35 0-.55.2-.2.2-.2.55V31.6q0 .35.225.575.225.225.525.225Zm0-14.55q.5 0 .8-.325.3-.325.3-.775 0-.5-.3-.8-.3-.3-.8-.3t-.8.3q-.3.3-.3.8t.3.8q.3.3.8.3Zm0 23.9q-.2 0-.375-.025t-.275-.075q-5.8-2-9.575-7.45Q10 28.75 10 22.05V13.3q0-.9.5-1.6.5-.7 1.3-1.05L23.05 6.5q.5-.2.95-.2.45 0 .95.2l11.25 4.15q.8.35 1.3 1.05.5.7.5 1.6v8.75q0 6.7-3.775 12.15T24.7 41.65q-.1.05-.7.1Z"/></svg>

<svg xmlns="http://www.w3.org/2000/svg" height="48" width="48"><path d="M24 32.4Q24.35 32.4 24.55 32.175Q24.75 31.95 24.75 31.6V21.45Q24.75 21.1 24.525 20.9Q24.3 20.7 24 20.7Q23.65 20.7 23.45 20.9Q23.25 21.1 23.25 21.45V31.6Q23.25 31.95 23.475 32.175Q23.7 32.4 24 32.4ZM24 17.85Q24.5 17.85 24.8 17.525Q25.1 17.2 25.1 16.75Q25.1 16.25 24.8 15.95Q24.5 15.65 24 15.65Q23.5 15.65 23.2 15.95Q22.9 16.25 22.9 16.75Q22.9 17.25 23.2 17.55Q23.5 17.85 24 17.85ZM24 41.75Q23.8 41.75 23.625 41.725Q23.45 41.7 23.35 41.65Q17.55 39.65 13.775 34.2Q10 28.75 10 22.05V13.3Q10 12.4 10.5 11.7Q11 11 11.8 10.65L23.05 6.5Q23.55 6.3 24 6.3Q24.45 6.3 24.95 6.5L36.2 10.65Q37 11 37.5 11.7Q38 12.4 38 13.3V22.05Q38 28.75 34.225 34.2Q30.45 39.65 24.7 41.65Q24.6 41.7 24 41.75Z"/></svg>
